svgs/duotone/microchip-ai.svg

<svg xmlns="http://www.w3.org/2000/svg" viewBox="0 0 512 512"><!--! Font Awesome Pro 6.6.0 by @fontawesome - https://fontawesome.com License - https://fontawesome.com/license (Commercial License) Copyright 2024 Fonticons, Inc. --><defs><style>.fa-secondary{opacity:.4}</style></defs><path class="fa-secondary" d="M0 152c0 13.3 10.7 24 24 24l40 0 0-48-40 0c-13.3 0-24 10.7-24 24zM0 256c0 13.3 10.7 24 24 24l40 0 0-48-40 0c-13.3 0-24 10.7-24 24zM0 360c0 13.3 10.7 24 24 24l40 0 0-48-40 0c-13.3 0-24 10.7-24 24zM128 24l0 40 48 0 0-40c0-13.3-10.7-24-24-24s-24 10.7-24 24zm0 424l0 40c0 13.3 10.7 24 24 24s24-10.7 24-24l0-40-48 0zM232 24l0 40 48 0 0-40c0-13.3-10.7-24-24-24s-24 10.7-24 24zm0 424l0 40c0 13.3 10.7 24 24 24s24-10.7 24-24l0-40-48 0zM336 24l0 40 48 0 0-40c0-13.3-10.7-24-24-24s-24 10.7-24 24zm0 424l0 40c0 13.3 10.7 24 24 24s24-10.7 24-24l0-40-48 0zM448 128l0 48 40 0c13.3 0 24-10.7 24-24s-10.7-24-24-24l-40 0zm0 104l0 48 40 0c13.3 0 24-10.7 24-24s-10.7-24-24-24l-40 0zm0 104l0 48 40 0c13.3 0 24-10.7 24-24s-10.7-24-24-24l-40 0z"/><path class="fa-primary" d="M128 64c-35.3 0-64 28.7-64 64l0 256c0 35.3 28.7 64 64 64l256 0c35.3 0 64-28.7 64-64l0-256c0-35.3-28.7-64-64-64L128 64zm94.7 121.6l42 96 14 32c3.5 8.1-.1 17.5-8.2 21.1s-17.5-.2-21.1-8.2L239.5 304l-63.1 0-9.8 22.4c-3.5 8.1-13 11.8-21.1 8.2s-11.8-13-8.2-21.1l14-32 42-96c2.5-5.8 8.3-9.6 14.7-9.6s12.1 3.8 14.7 9.6zM208 231.9L190.5 272l35.1 0L208 231.9zM352 192l0 128c0 8.8-7.2 16-16 16s-16-7.2-16-16l0-128c0-8.8 7.2-16 16-16s16 7.2 16 16z"/></svg>

<svg xmlns="http://www.w3.org/2000/svg" viewBox="0 0 512 512"><!--! Font Awesome Pro 6.4.0 by @fontawesome - https://fontawesome.com License - https://fontawesome.com/license (Commercial License) Copyright 2023 Fonticons, Inc. --><defs><style>.fa-secondary{opacity:.4}</style></defs><path class="fa-primary" d="M128 64c-35.3 0-64 28.7-64 64V384c0 35.3 28.7 64 64 64H384c35.3 0 64-28.7 64-64V128c0-35.3-28.7-64-64-64H128zm94.7 121.6l42 96 14 32c3.5 8.1-.1 17.5-8.2 21.1s-17.5-.2-21.1-8.2L239.5 304H176.5l-9.8 22.4c-3.5 8.1-13 11.8-21.1 8.2s-11.8-13-8.2-21.1l14-32 42-96c2.5-5.8 8.3-9.6 14.7-9.6s12.1 3.8 14.7 9.6zM208 231.9L190.5 272h35.1L208 231.9zM352 192V320c0 8.8-7.2 16-16 16s-16-7.2-16-16V192c0-8.8 7.2-16 16-16s16 7.2 16 16z"/><path class="fa-secondary" d="M176 24c0-13.3-10.7-24-24-24s-24 10.7-24 24V64h48V24zM280 64V24c0-13.3-10.7-24-24-24s-24 10.7-24 24V64h48zm104 0V24c0-13.3-10.7-24-24-24s-24 10.7-24 24V64h48zm64 112h40c13.3 0 24-10.7 24-24s-10.7-24-24-24H448v48zm0 104h40c13.3 0 24-10.7 24-24s-10.7-24-24-24H448v48zm0 104h40c13.3 0 24-10.7 24-24s-10.7-24-24-24H448v48zM336 448v40c0 13.3 10.7 24 24 24s24-10.7 24-24V448H336zm-104 0v40c0 13.3 10.7 24 24 24s24-10.7 24-24V448H232zm-104 0v40c0 13.3 10.7 24 24 24s24-10.7 24-24V448H128zM64 336H24c-13.3 0-24 10.7-24 24s10.7 24 24 24H64V336zm0-104H24c-13.3 0-24 10.7-24 24s10.7 24 24 24H64V232zm0-104H24c-13.3 0-24 10.7-24 24s10.7 24 24 24H64V128z"/></svg>
